src/assets/img/globalping/integrations/n8n.svg

<svg width="80" height="40" viewBox="0 0 80 40" fill="none" xmlns="http://www.w3.org/2000/svg" data-v-3baeee6e="" class=""><path fill-rule="evenodd" clip-rule="evenodd" d="M78.9736 8C78.9736 12.4183 75.3919 16 70.9736 16C67.246 16 64.1138 13.4505 63.2257 10H52.0564C50.101 10 48.4323 11.4137 48.1108 13.3424L47.782 15.3152C47.4698 17.1883 46.5223 18.8185 45.1824 20C46.5223 21.1815 47.4698 22.8117 47.782 24.6848L48.1108 26.6576C48.4323 28.5863 50.101 30 52.0564 30H55.2257C56.1138 26.5495 59.246 24 62.9736 24C67.3919 24 70.9736 27.5817 70.9736 32C70.9736 36.4183 67.3919 40 62.9736 40C59.246 40 56.1138 37.4505 55.2257 34H52.0564C48.1457 34 44.8082 31.1727 44.1653 27.3152L43.8364 25.3424C43.515 23.4137 41.8462 22 39.8909 22H36.628C35.6294 25.2801 32.5802 27.6667 28.9736 27.6667C25.367 27.6667 22.3179 25.2801 21.3193 22H16.628C15.6294 25.2801 12.5802 27.6667 8.97363 27.6667C4.55536 27.6667 0.973633 24.0849 0.973633 19.6667C0.973633 15.2484 4.55536 11.6667 8.97363 11.6667C12.8204 11.6667 16.033 14.3817 16.7998 18H21.1475C21.9143 14.3817 25.1269 11.6667 28.9736 11.6667C32.8204 11.6667 36.033 14.3817 36.7998 18H39.8909C41.8462 18 43.515 16.5863 43.8364 14.6576L44.1653 12.6848C44.8082 8.8273 48.1457 6 52.0564 6L63.2257 6C64.1138 2.54955 67.246 0 70.9736 0C75.3919 0 78.9736 3.58172 78.9736 8ZM74.9736 8C74.9736 10.2091 73.1828 12 70.9736 12C68.7645 12 66.9736 10.2091 66.9736 8C66.9736 5.79086 68.7645 4 70.9736 4C73.1828 4 74.9736 5.79086 74.9736 8ZM8.97363 23.6667C11.1828 23.6667 12.9736 21.8758 12.9736 19.6667C12.9736 17.4575 11.1828 15.6667 8.97363 15.6667C6.76449 15.6667 4.97363 17.4575 4.97363 19.6667C4.97363 21.8758 6.76449 23.6667 8.97363 23.6667ZM28.9736 23.6667C31.1828 23.6667 32.9736 21.8758 32.9736 19.6667C32.9736 17.4575 31.1828 15.6667 28.9736 15.6667C26.7645 15.6667 24.9736 17.4575 24.9736 19.6667C24.9736 21.8758 26.7645 23.6667 28.9736 23.6667ZM62.9736 36C65.1828 36 66.9736 34.2091 66.9736 32C66.9736 29.7909 65.1828 28 62.9736 28C60.7645 28 58.9736 29.7909 58.9736 32C58.9736 34.2091 60.7645 36 62.9736 36Z" fill="#EA4B71" data-v-3baeee6e=""></path></svg>

<svg xmlns="http://www.w3.org/2000/svg" width="80" height="40" fill="none">
  <path fill="#EA4B71" fill-rule="evenodd" d="M78.974 8a8 8 0 0 1-15.748 2h-11.17a4 4 0 0 0-3.945 3.342l-.329 1.973a7.98 7.98 0 0 1-2.6 4.685 7.98 7.98 0 0 1 2.6 4.685l.329 1.973A4 4 0 0 0 52.056 30h3.17a8 8 0 1 1 0 4h-3.17a8 8 0 0 1-7.89-6.685l-.33-1.973A4 4 0 0 0 39.891 22h-3.263a8.004 8.004 0 0 1-15.309 0h-4.691a8 8 0 1 1 .172-4h4.348A8.003 8.003 0 0 1 36.8 18h3.09a4 4 0 0 0 3.946-3.342l.33-1.973A8 8 0 0 1 52.055 6h11.17a8 8 0 0 1 15.748 2m-4 0a4 4 0 1 1-8 0 4 4 0 0 1 8 0m-66 15.667a4 4 0 1 0 0-8 4 4 0 0 0 0 8m20 0a4 4 0 1 0 0-8 4 4 0 0 0 0 8m34 12.333a4 4 0 1 0 0-8 4 4 0 0 0 0 8" clip-rule="evenodd"/>
</svg>
